static/images/skills/tensorflow.svg

<svg xmlns="http://www.w3.org/2000/svg" xml:space="preserve" style="fill-rule:evenodd;clip-rule:evenodd;stroke-linejoin:round;stroke-miterlimit:2" viewBox="0 0 1200 900"><path d="M0 0h1200v900H0z" style="fill:#ffb57d"/><path d="m61.55 128-21.84-12.68V40.55L6.81 59.56l.08-28.32L61.55 0zM66.46 0v128l21.84-12.68V79.31l16.49 9.53-.1-24.63-16.39-9.36v-14.3l32.89 19.01-.08-28.32z" style="fill:#ff6f00;fill-rule:nonzero" transform="translate(300 150)scale(4.6875)"/></svg>

<?xml version="1.0" encoding="UTF-8" standalone="no"?>
<!DOCTYPE svg PUBLIC "-//W3C//DTD SVG 1.1//EN" "http://www.w3.org/Graphics/SVG/1.1/DTD/svg11.dtd">
<svg width="100%" height="100%" viewBox="0 0 1200 900" version="1.1" xmlns="http://www.w3.org/2000/svg" xmlns:xlink="http://www.w3.org/1999/xlink" xml:space="preserve" xmlns:serif="http://www.serif.com/" style="fill-rule:evenodd;clip-rule:evenodd;stroke-linejoin:round;stroke-miterlimit:2;">
    <rect x="0" y="0" width="1200" height="900" style="fill:rgb(255,181,125);"/>
    <g transform="matrix(4.6875,0,0,4.6875,300,150)">
        <path d="M61.55,128L39.71,115.32L39.71,40.55L6.81,59.56L6.89,31.24L61.55,0L61.55,128ZM66.46,0L66.46,128L88.3,115.32L88.3,79.31L104.79,88.84L104.69,64.21L88.3,54.85L88.3,40.55L121.19,59.56L121.11,31.24L66.46,0Z" style="fill:rgb(255,111,0);fill-rule:nonzero;"/>
    </g>
</svg>
